app/dist/common/images/petra-diamonds-ltd.svg

<svg height="18" viewBox="0 0 18 18" width="18" xmlns="http://www.w3.org/2000/svg"><path d="m0 0h18v18h-18z" fill="#f0f3fa"/><g fill="#083b82"><path d="m7.67 7.4 1 4.2v-4.05l1.16-.6.67 1.05-1.17 1.35 2-1.2-1.33-1.5z"/><path d="m8 14 6-5.1-1.17-2.85-5.33-1.05-2.5 1.95zm0 0 5-5.4-.5-2.25-5-1.35-1.33 2.25z" fill-rule="evenodd"/></g></svg>

<!-- by TradingView --><svg width="18" height="18" viewBox="0 0 18 18" xmlns="http://www.w3.org/2000/svg"><path fill="#F0F3FA" d="M0 0h18v18H0z"/><path d="m7.67 7.4 1 4.2V7.55l1.16-.6L10.5 8 9.33 9.35l2-1.2L10 6.65l-2.33.75Z" fill="#083B82"/><path fill-rule="evenodd" d="m8 14 6-5.1-1.17-2.85L7.5 5 5 6.95 8 14Zm0 0 5-5.4-.5-2.25L7.5 5 6.17 7.25 8 14Z" fill="#083B82"/></svg>
